output/footprints/LKBD_MicroSwitch.pretty/SW_D2LS_OMR.svg

<?xml version="1.0" standalone="no"?>
 <!DOCTYPE svg PUBLIC "-//W3C//DTD SVG 1.1//EN" 
 "http://www.w3.org/Graphics/SVG/1.1/DTD/svg11.dtd"> 
<svg
  xmlns:svg="http://www.w3.org/2000/svg"
  xmlns="http://www.w3.org/2000/svg"
  xmlns:xlink="http://www.w3.org/1999/xlink"
  version="1.1"
  width="12.0396mm" height="9.2964mm" viewBox="0.0000 0.0000 12.0396 9.2964">
<title>SVG Image created as SW_D2LS_OMR.svg date 2025/05/12 22:52:36 </title>
  <desc>Image generated by PCBNEW </desc>
<g style="fill:#000000; fill-opacity:1.0000;stroke:#000000; stroke-opacity:1.0000;
stroke-linecap:round; stroke-linejoin:round;"
 transform="translate(0 0) scale(1 1)">
</g>
<g style="fill:none; 
stroke:#F2EDA1; stroke-width:0.1500; stroke-opacity:1; 
stroke-linecap:round; stroke-linejoin:round;">
<g transform="rotate(-90.000000 6.5250 4.6482)">
<text x="6.5250" y="5.1482"
textLength="4.5357" font-size="1.3333" lengthAdjust="spacingAndGlyphs"
text-anchor="middle" opacity="0" stroke-opacity="0">REF**</text>
</g>
<g class="stroked-text"><desc>REF**</desc>
<path d="M6.9798 5.9816
L6.5036 6.3149
" />
<path d="M6.9798 6.5530
L5.9798 6.5530
" />
<path d="M5.9798 6.5530
L5.9798 6.1721
" />
<path d="M5.9798 6.1721
L6.0274 6.0768
" />
<path d="M6.0274 6.0768
L6.0751 6.0292
" />
<path d="M6.0751 6.0292
L6.1703 5.9816
" />
<path d="M6.1703 5.9816
L6.3132 5.9816
" />
<path d="M6.3132 5.9816
L6.4084 6.0292
" />
<path d="M6.4084 6.0292
L6.4560 6.0768
" />
<path d="M6.4560 6.0768
L6.5036 6.1721
" />
<path d="M6.5036 6.1721
L6.5036 6.5530
" />
<path d="M6.4560 5.5530
L6.4560 5.2197
" />
<path d="M6.9798 5.0768
L6.9798 5.5530
" />
<path d="M6.9798 5.5530
L5.9798 5.5530
" />
<path d="M5.9798 5.5530
L5.9798 5.0768
" />
<path d="M6.4560 4.3149
L6.4560 4.6482
" />
<path d="M6.9798 4.6482
L5.9798 4.6482
" />
<path d="M5.9798 4.6482
L5.9798 4.1721
" />
<path d="M5.9798 3.6482
L6.2179 3.6482
" />
<path d="M6.1227 3.8863
L6.2179 3.6482
" />
<path d="M6.2179 3.6482
L6.1227 3.4102
" />
<path d="M6.4084 3.7911
L6.2179 3.6482
" />
<path d="M6.2179 3.6482
L6.4084 3.5054
" />
<path d="M5.9798 2.8863
L6.2179 2.8863
" />
<path d="M6.1227 3.1244
L6.2179 2.8863
" />
<path d="M6.2179 2.8863
L6.1227 2.6482
" />
<path d="M6.4084 3.0292
L6.2179 2.8863
" />
<path d="M6.2179 2.8863
L6.4084 2.7435
" />
</g></g>
<g style="fill:none; 
stroke:#F2EDA1; stroke-width:0.1200; stroke-opacity:1; 
stroke-linecap:round; stroke-linejoin:round;">
<path d="M1.6250 2.1482
L1.6250 2.8882
" />
<path d="M1.6250 7.1482
L1.6250 6.4082
" />
<path d="M1.6250 7.1482
L10.4250 7.1482
" />
<path d="M5.4350 5.4482
L5.4350 3.8482
" />
<path d="M10.4250 2.1482
L1.6250 2.1482
" />
<path d="M10.4250 2.1482
L10.4250 2.8882
" />
<path d="M10.4250 7.1482
L10.4250 6.4082
" />
<path d="M5.4350 3.8482 A0.5500 0.5500 0.0 0 0 4.3350 3.8482" />
<path d="M4.3350 5.4482 A0.5500 0.5500 0.0 0 0 5.4350 5.4482" />
<path style="fill:#B4A09A; fill-opacity:0.9000; stroke:none;fill-rule:evenodd;"
d="M 0.1250,3.1982
0.1364,3.1408
0.1689,3.0922
0.2176,3.0597
0.2750,3.0482
1.4750,3.0482
1.5324,3.0597
1.5811,3.0922
1.6136,3.1408
1.6250,3.1982
1.6250,6.0982
1.6136,6.1557
1.5811,6.2043
1.5324,6.2368
1.4750,6.2482
0.2750,6.2482
0.2176,6.2368
0.1689,6.2043
0.1364,6.1557
0.1250,6.0982
Z" /> 
<path style="fill:#B4A09A; fill-opacity:0.9000; stroke:none;fill-rule:evenodd;"
d="M 10.4250,3.1982
10.4364,3.1408
10.4689,3.0922
10.5176,3.0597
10.5750,3.0482
11.7750,3.0482
11.8324,3.0597
11.8811,3.0922
11.9136,3.1408
11.9250,3.1982
11.9250,6.0982
11.9136,6.1557
11.8811,6.2043
11.8324,6.2368
11.7750,6.2482
10.5750,6.2482
10.5176,6.2368
10.4689,6.2043
10.4364,6.1557
10.4250,6.0982
Z" /> 
<path style="fill:#C83434; fill-opacity:1.0000; stroke:none;fill-rule:evenodd;"
d="M 0.1250,3.1982
0.1364,3.1408
0.1689,3.0922
0.2176,3.0597
0.2750,3.0482
1.4750,3.0482
1.5324,3.0597
1.5811,3.0922
1.6136,3.1408
1.6250,3.1982
1.6250,6.0982
1.6136,6.1557
1.5811,6.2043
1.5324,6.2368
1.4750,6.2482
0.2750,6.2482
0.2176,6.2368
0.1689,6.2043
0.1364,6.1557
0.1250,6.0982
Z" /> 
<path style="fill:#C83434; fill-opacity:1.0000; stroke:none;fill-rule:evenodd;"
d="M 10.4250,3.1982
10.4364,3.1408
10.4689,3.0922
10.5176,3.0597
10.5750,3.0482
11.7750,3.0482
11.8324,3.0597
11.8811,3.0922
11.9136,3.1408
11.9250,3.1982
11.9250,6.0982
11.9136,6.1557
11.8811,6.2043
11.8324,6.2368
11.7750,6.2482
10.5750,6.2482
10.5176,6.2368
10.4689,6.2043
10.4364,6.1557
10.4250,6.0982
Z" /> 
</g>
<g style="fill:none; 
stroke:#585D84; stroke-width:0.0212; stroke-opacity:1; 
stroke-linecap:round; stroke-linejoin:round;">
<circle cx="4.0250" cy="4.6482" r="0.5700" /> 
</g>
<g style="fill:none; 
stroke:#585D84; stroke-width:0.0212; stroke-opacity:1; 
stroke-linecap:round; stroke-linejoin:round;">
<circle cx="8.0250" cy="4.6482" r="0.5700" /> 
</g>
<g style="fill:none; 
stroke:#AFAFAF; stroke-width:0.1500; stroke-opacity:1; 
stroke-linecap:round; stroke-linejoin:round;">
<text x="6.0250" y="1.3482"
textLength="10.7738" font-size="1.3333" lengthAdjust="spacingAndGlyphs"
text-anchor="middle" opacity="0" stroke-opacity="0">SW_D2LS_OMR</text>
<g class="stroked-text"><desc>SW_D2LS_OMR</desc>
<path d="M0.9536 1.2554
L1.0964 1.3031
" />
<path d="M1.0964 1.3031
L1.3345 1.3031
" />
<path d="M1.3345 1.3031
L1.4298 1.2554
" />
<path d="M1.4298 1.2554
L1.4774 1.2078
" />
<path d="M1.4774 1.2078
L1.5250 1.1126
" />
<path d="M1.5250 1.1126
L1.5250 1.0174
" />
<path d="M1.5250 1.0174
L1.4774 0.9221
" />
<path d="M1.4774 0.9221
L1.4298 0.8745
" />
<path d="M1.4298 0.8745
L1.3345 0.8269
" />
<path d="M1.3345 0.8269
L1.1440 0.7793
" />
<path d="M1.1440 0.7793
L1.0488 0.7316
" />
<path d="M1.0488 0.7316
L1.0012 0.6840
" />
<path d="M1.0012 0.6840
L0.9536 0.5888
" />
<path d="M0.9536 0.5888
L0.9536 0.4935
" />
<path d="M0.9536 0.4935
L1.0012 0.3983
" />
<path d="M1.0012 0.3983
L1.0488 0.3507
" />
<path d="M1.0488 0.3507
L1.1440 0.3031
" />
<path d="M1.1440 0.3031
L1.3821 0.3031
" />
<path d="M1.3821 0.3031
L1.5250 0.3507
" />
<path d="M1.8583 0.3031
L2.0964 1.3031
" />
<path d="M2.0964 1.3031
L2.2869 0.5888
" />
<path d="M2.2869 0.5888
L2.4774 1.3031
" />
<path d="M2.4774 1.3031
L2.7155 0.3031
" />
<path d="M2.8583 1.3983
L3.6202 1.3983
" />
<path d="M3.8583 1.3031
L3.8583 0.3031
" />
<path d="M3.8583 0.3031
L4.0964 0.3031
" />
<path d="M4.0964 0.3031
L4.2393 0.3507
" />
<path d="M4.2393 0.3507
L4.3345 0.4459
" />
<path d="M4.3345 0.4459
L4.3821 0.5412
" />
<path d="M4.3821 0.5412
L4.4298 0.7316
" />
<path d="M4.4298 0.7316
L4.4298 0.8745
" />
<path d="M4.4298 0.8745
L4.3821 1.0650
" />
<path d="M4.3821 1.0650
L4.3345 1.1602
" />
<path d="M4.3345 1.1602
L4.2393 1.2554
" />
<path d="M4.2393 1.2554
L4.0964 1.3031
" />
<path d="M4.0964 1.3031
L3.8583 1.3031
" />
<path d="M4.8107 0.3983
L4.8583 0.3507
" />
<path d="M4.8583 0.3507
L4.9536 0.3031
" />
<path d="M4.9536 0.3031
L5.1917 0.3031
" />
<path d="M5.1917 0.3031
L5.2869 0.3507
" />
<path d="M5.2869 0.3507
L5.3345 0.3983
" />
<path d="M5.3345 0.3983
L5.3821 0.4935
" />
<path d="M5.3821 0.4935
L5.3821 0.5888
" />
<path d="M5.3821 0.5888
L5.3345 0.7316
" />
<path d="M5.3345 0.7316
L4.7631 1.3031
" />
<path d="M4.7631 1.3031
L5.3821 1.3031
" />
<path d="M6.2869 1.3031
L5.8107 1.3031
" />
<path d="M5.8107 1.3031
L5.8107 0.3031
" />
<path d="M6.5726 1.2554
L6.7155 1.3031
" />
<path d="M6.7155 1.3031
L6.9536 1.3031
" />
<path d="M6.9536 1.3031
L7.0488 1.2554
" />
<path d="M7.0488 1.2554
L7.0964 1.2078
" />
<path d="M7.0964 1.2078
L7.1440 1.1126
" />
<path d="M7.1440 1.1126
L7.1440 1.0174
" />
<path d="M7.1440 1.0174
L7.0964 0.9221
" />
<path d="M7.0964 0.9221
L7.0488 0.8745
" />
<path d="M7.0488 0.8745
L6.9536 0.8269
" />
<path d="M6.9536 0.8269
L6.7631 0.7793
" />
<path d="M6.7631 0.7793
L6.6679 0.7316
" />
<path d="M6.6679 0.7316
L6.6202 0.6840
" />
<path d="M6.6202 0.6840
L6.5726 0.5888
" />
<path d="M6.5726 0.5888
L6.5726 0.4935
" />
<path d="M6.5726 0.4935
L6.6202 0.3983
" />
<path d="M6.6202 0.3983
L6.6679 0.3507
" />
<path d="M6.6679 0.3507
L6.7631 0.3031
" />
<path d="M6.7631 0.3031
L7.0012 0.3031
" />
<path d="M7.0012 0.3031
L7.1440 0.3507
" />
<path d="M7.3345 1.3983
L8.0964 1.3983
" />
<path d="M8.5250 0.3031
L8.7155 0.3031
" />
<path d="M8.7155 0.3031
L8.8107 0.3507
" />
<path d="M8.8107 0.3507
L8.9060 0.4459
" />
<path d="M8.9060 0.4459
L8.9536 0.6364
" />
<path d="M8.9536 0.6364
L8.9536 0.9697
" />
<path d="M8.9536 0.9697
L8.9060 1.1602
" />
<path d="M8.9060 1.1602
L8.8107 1.2554
" />
<path d="M8.8107 1.2554
L8.7155 1.3031
" />
<path d="M8.7155 1.3031
L8.5250 1.3031
" />
<path d="M8.5250 1.3031
L8.4298 1.2554
" />
<path d="M8.4298 1.2554
L8.3345 1.1602
" />
<path d="M8.3345 1.1602
L8.2869 0.9697
" />
<path d="M8.2869 0.9697
L8.2869 0.6364
" />
<path d="M8.2869 0.6364
L8.3345 0.4459
" />
<path d="M8.3345 0.4459
L8.4298 0.3507
" />
<path d="M8.4298 0.3507
L8.5250 0.3031
" />
<path d="M9.3821 1.3031
L9.3821 0.3031
" />
<path d="M9.3821 0.3031
L9.7155 1.0174
" />
<path d="M9.7155 1.0174
L10.0488 0.3031
" />
<path d="M10.0488 0.3031
L10.0488 1.3031
" />
<path d="M11.0964 1.3031
L10.7631 0.8269
" />
<path d="M10.5250 1.3031
L10.5250 0.3031
" />
<path d="M10.5250 0.3031
L10.9060 0.3031
" />
<path d="M10.9060 0.3031
L11.0012 0.3507
" />
<path d="M11.0012 0.3507
L11.0488 0.3983
" />
<path d="M11.0488 0.3983
L11.0964 0.4935
" />
<path d="M11.0964 0.4935
L11.0964 0.6364
" />
<path d="M11.0964 0.6364
L11.0488 0.7316
" />
<path d="M11.0488 0.7316
L11.0012 0.7793
" />
<path d="M11.0012 0.7793
L10.9060 0.8269
" />
<path d="M10.9060 0.8269
L10.5250 0.8269
" />
</g><text x="6.0250" y="8.9482"
textLength="4.5357" font-size="1.3333" lengthAdjust="spacingAndGlyphs"
text-anchor="middle" opacity="0" stroke-opacity="0">REF**</text>
<g class="stroked-text"><desc>REF**</desc>
<path d="M4.6917 8.9031
L4.3583 8.4269
" />
<path d="M4.1202 8.9031
L4.1202 7.9031
" />
<path d="M4.1202 7.9031
L4.5012 7.9031
" />
<path d="M4.5012 7.9031
L4.5964 7.9507
" />
<path d="M4.5964 7.9507
L4.6440 7.9983
" />
<path d="M4.6440 7.9983
L4.6917 8.0935
" />
<path d="M4.6917 8.0935
L4.6917 8.2364
" />
<path d="M4.6917 8.2364
L4.6440 8.3316
" />
<path d="M4.6440 8.3316
L4.5964 8.3793
" />
<path d="M4.5964 8.3793
L4.5012 8.4269
" />
<path d="M4.5012 8.4269
L4.1202 8.4269
" />
<path d="M5.1202 8.3793
L5.4536 8.3793
" />
<path d="M5.5964 8.9031
L5.1202 8.9031
" />
<path d="M5.1202 8.9031
L5.1202 7.9031
" />
<path d="M5.1202 7.9031
L5.5964 7.9031
" />
<path d="M6.3583 8.3793
L6.0250 8.3793
" />
<path d="M6.0250 8.9031
L6.0250 7.9031
" />
<path d="M6.0250 7.9031
L6.5012 7.9031
" />
<path d="M7.0250 7.9031
L7.0250 8.1412
" />
<path d="M6.7869 8.0459
L7.0250 8.1412
" />
<path d="M7.0250 8.1412
L7.2631 8.0459
" />
<path d="M6.8821 8.3316
L7.0250 8.1412
" />
<path d="M7.0250 8.1412
L7.1679 8.3316
" />
<path d="M7.7869 7.9031
L7.7869 8.1412
" />
<path d="M7.5488 8.0459
L7.7869 8.1412
" />
<path d="M7.7869 8.1412
L8.0250 8.0459
" />
<path d="M7.6440 8.3316
L7.7869 8.1412
" />
<path d="M7.7869 8.1412
L7.9298 8.3316
" />
</g><path style="fill:none; 
stroke:#AFAFAF; stroke-width:0.1000; stroke-opacity:1; 
stroke-linecap:round; stroke-linejoin:round;fill:none"
d="M 1.7250,2.2483
10.3250,2.2483
10.3250,7.0482
1.7250,7.0482
Z" /> 
</g>
<g style="fill:none; 
stroke:#AFAFAF; stroke-width:0.0212; stroke-opacity:1; 
stroke-linecap:round; stroke-linejoin:round;">
<circle cx="4.0250" cy="4.6482" r="0.5700" /> 
</g>
<g style="fill:none; 
stroke:#AFAFAF; stroke-width:0.0212; stroke-opacity:1; 
stroke-linecap:round; stroke-linejoin:round;">
<circle cx="8.0250" cy="4.6482" r="0.5700" /> 
</g>
<g style="fill:none; 
stroke:#AFAFAF; stroke-width:0.0889; stroke-opacity:1; 
stroke-linecap:round; stroke-linejoin:round;">
<g transform="rotate(-90.000000 0.8750 4.6482)">
<text x="0.8750" y="5.1816"
textLength="1.0692" font-size="1.4222" lengthAdjust="spacingAndGlyphs"
text-anchor="middle" opacity="0" stroke-opacity="0">1</text>
</g>
<g class="stroked-text"><desc>1</desc>
<path d="M1.3638 4.3435
L1.3638 4.9530
" />
<path d="M1.3638 4.6482
L0.2972 4.6482
" />
<path d="M0.2972 4.6482
L0.4496 4.7498
" />
<path d="M0.4496 4.7498
L0.5511 4.8514
" />
<path d="M0.5511 4.8514
L0.6019 4.9530
" />
</g><path style="fill:none; 
stroke:#AFAFAF; stroke-width:0.0212; stroke-opacity:1; 
stroke-linecap:round; stroke-linejoin:round;fill:none"
d="M 0.1250,3.1982
0.1364,3.1408
0.1689,3.0922
0.2176,3.0597
0.2750,3.0482
1.4750,3.0482
1.5324,3.0597
1.5811,3.0922
1.6136,3.1408
1.6250,3.1982
1.6250,6.0982
1.6136,6.1557
1.5811,6.2043
1.5324,6.2368
1.4750,6.2482
0.2750,6.2482
0.2176,6.2368
0.1689,6.2043
0.1364,6.1557
0.1250,6.0982
Z" /> 
</g>
<g style="fill:none; 
stroke:#AFAFAF; stroke-width:0.0889; stroke-opacity:1; 
stroke-linecap:round; stroke-linejoin:round;">
<g transform="rotate(-90.000000 11.1750 4.6482)">
<text x="11.1750" y="5.1816"
textLength="1.0692" font-size="1.4222" lengthAdjust="spacingAndGlyphs"
text-anchor="middle" opacity="0" stroke-opacity="0">2</text>
</g>
<g class="stroked-text"><desc>2</desc>
<path d="M10.6988 4.9530
L10.6480 4.9022
" />
<path d="M10.6480 4.9022
L10.5972 4.8006
" />
<path d="M10.5972 4.8006
L10.5972 4.5467
" />
<path d="M10.5972 4.5467
L10.6480 4.4451
" />
<path d="M10.6480 4.4451
L10.6988 4.3943
" />
<path d="M10.6988 4.3943
L10.8003 4.3435
" />
<path d="M10.8003 4.3435
L10.9019 4.3435
" />
<path d="M10.9019 4.3435
L11.0543 4.3943
" />
<path d="M11.0543 4.3943
L11.6638 5.0038
" />
<path d="M11.6638 5.0038
L11.6638 4.3435
" />
</g><path style="fill:none; 
stroke:#AFAFAF; stroke-width:0.0212; stroke-opacity:1; 
stroke-linecap:round; stroke-linejoin:round;fill:none"
d="M 10.4250,3.1982
10.4364,3.1408
10.4689,3.0922
10.5176,3.0597
10.5750,3.0482
11.7750,3.0482
11.8324,3.0597
11.8811,3.0922
11.9136,3.1408
11.9250,3.1982
11.9250,6.0982
11.9136,6.1557
11.8811,6.2043
11.8324,6.2368
11.7750,6.2482
10.5750,6.2482
10.5176,6.2368
10.4689,6.2043
10.4364,6.1557
10.4250,6.0982
Z" /> 
</g> 
</svg>

<svg xmlns="http://www.w3.org/2000/svg" width="45.504" height="35.136" viewBox="0 0 12.04 9.296">
    <g style="fill:none;stroke:#f2eda1;stroke-width:.15;stroke-opacity:1;stroke-linecap:round;stroke-linejoin:round">
        <g class="stroked-text">
            <path d="m6.98 5.982-.476.333M6.98 6.553h-1M5.98 6.553v-.38M5.98 6.172l.047-.095M6.027 6.077l.048-.048M6.075 6.03l.095-.048M6.17 5.982h.143M6.313 5.982l.095.047M6.408 6.03l.048.047M6.456 6.077l.048.095M6.504 6.172v.381M6.456 5.553V5.22M6.98 5.077v.476M6.98 5.553h-1M5.98 5.553v-.476M6.456 4.315v.333M6.98 4.648h-1M5.98 4.648v-.476M5.98 3.648h.238M6.123 3.886l.095-.238M6.218 3.648l-.095-.238M6.408 3.791l-.19-.143M6.218 3.648l.19-.143M5.98 2.886h.238M6.123 3.124l.095-.238M6.218 2.886l-.095-.238M6.408 3.03l-.19-.144M6.218 2.886l.19-.143"/>
        </g>
    </g>
    <g style="fill:none;stroke:#f2eda1;stroke-width:.12;stroke-opacity:1;stroke-linecap:round;stroke-linejoin:round">
        <path d="M1.625 2.148v.74M1.625 7.148v-.74M1.625 7.148h8.8M5.435 5.448v-1.6M10.425 2.148h-8.8M10.425 2.148v.74M10.425 7.148v-.74M5.435 3.848a.55.55 0 0 0-1.1 0M4.335 5.448a.55.55 0 0 0 1.1 0"/>
        <path stroke="none" d="m.125 3.198.011-.057.033-.049.049-.032.057-.012h1.2l.057.012.05.032.032.049.011.057v2.9l-.011.058-.033.048-.049.033-.057.011h-1.2l-.057-.011-.05-.033-.032-.048-.011-.058ZM10.425 3.198l.011-.057.033-.049.049-.032.057-.012h1.2l.057.012.05.032.032.049.011.057v2.9l-.011.058-.033.048-.049.033-.057.011h-1.2l-.057-.011-.05-.033-.032-.048-.011-.058Z" style="fill:#b4a09a;fill-opacity:.9;stroke:none;fill-rule:evenodd"/>
        <path stroke="none" d="m.125 3.198.011-.057.033-.049.049-.032.057-.012h1.2l.057.012.05.032.032.049.011.057v2.9l-.011.058-.033.048-.049.033-.057.011h-1.2l-.057-.011-.05-.033-.032-.048-.011-.058ZM10.425 3.198l.011-.057.033-.049.049-.032.057-.012h1.2l.057.012.05.032.032.049.011.057v2.9l-.011.058-.033.048-.049.033-.057.011h-1.2l-.057-.011-.05-.033-.032-.048-.011-.058Z" style="fill:#c83434;fill-opacity:1;stroke:none;fill-rule:evenodd"/>
    </g>
    <circle cx="4.025" cy="4.648" r=".57" style="fill:none;stroke:#585d84;stroke-width:.0212;stroke-opacity:1;stroke-linecap:round;stroke-linejoin:round"/>
    <circle cx="8.025" cy="4.648" r=".57" style="fill:none;stroke:#585d84;stroke-width:.0212;stroke-opacity:1;stroke-linecap:round;stroke-linejoin:round"/>
    <g style="fill:none;stroke:#afafaf;stroke-width:.15;stroke-opacity:1;stroke-linecap:round;stroke-linejoin:round">
        <g class="stroked-text">
            <path d="m.954 1.255.142.048M1.096 1.303h.238M1.335 1.303l.095-.048M1.43 1.255l.047-.047M1.477 1.208l.048-.095M1.525 1.113v-.096M1.525 1.017 1.477.922M1.477.922 1.43.875M1.43.875 1.335.827M1.335.827 1.144.779M1.144.78 1.049.731M1.049.732 1 .684M1.001.684.954.589M.954.589V.494M.954.494 1 .397M1.001.398 1.05.351M1.049.35l.095-.047M1.144.303h.238M1.382.303l.143.048M1.858.303l.238 1M2.096 1.303l.19-.714M2.287.589l.19.714M2.477 1.303l.239-1M2.858 1.398h.762M3.858 1.303v-1M3.858.303h.238M4.096.303l.143.048M4.24.35l.095.096M4.335.446l.047.095M4.382.541l.048.19M4.43.732v.143M4.43.875l-.048.19M4.382 1.065l-.047.095M4.335 1.16l-.096.095M4.24 1.255l-.144.048M4.096 1.303h-.238M4.81.398l.048-.047M4.858.35l.096-.047M4.954.303h.238M5.192.303l.095.048M5.287.35l.048.048M5.335.398l.047.095M5.382.494v.095M5.382.589l-.047.143M5.335.732l-.572.571M4.763 1.303h.62M6.287 1.303H5.81M5.81 1.303v-1M6.573 1.255l.142.048M6.716 1.303h.238M6.954 1.303l.095-.048M7.049 1.255l.047-.047M7.096 1.208l.048-.095M7.144 1.113v-.096M7.144 1.017 7.096.922M7.096.922 7.05.875M7.049.875 6.954.827M6.954.827l-.19-.048M6.763.78 6.668.731M6.668.732 6.62.684M6.62.684 6.573.589M6.573.589V.494M6.573.494 6.62.397M6.62.398l.048-.047M6.668.35l.095-.047M6.763.303h.238M7.001.303l.143.048M7.335 1.398h.761M8.525.303h.19M8.716.303l.095.048M8.81.35l.096.096M8.906.446l.048.19M8.954.636V.97M8.954.97l-.048.19M8.906 1.16l-.095.095M8.81 1.255l-.095.048M8.716 1.303h-.191M8.525 1.303l-.095-.048M8.43 1.255l-.095-.095M8.335 1.16 8.287.97M8.287.97V.636M8.287.636l.047-.19M8.335.446 8.43.35M8.43.35l.095-.047M9.382 1.303v-1M9.382.303l.334.714M9.716 1.017l.333-.714M10.049.303v1M11.096 1.303l-.333-.476M10.525 1.303v-1M10.525.303h.381M10.906.303l.095.048M11.001.35l.048.048M11.049.398l.047.095M11.096.494v.142M11.096.636l-.047.096M11.049.732 11 .779M11.001.78l-.095.047M10.906.827h-.381"/>
        </g>
        <g class="stroked-text">
            <path d="m4.692 8.903-.334-.476M4.12 8.903v-1M4.12 7.903h.381M4.501 7.903l.095.048M4.596 7.95l.048.048M4.644 7.998l.048.096M4.692 8.094v.142M4.692 8.236l-.048.096M4.644 8.332l-.048.047M4.596 8.38l-.095.047M4.501 8.427h-.38M5.12 8.38h.334M5.596 8.903H5.12M5.12 8.903v-1M5.12 7.903h.476M6.358 8.38h-.333M6.025 8.903v-1M6.025 7.903h.476M7.025 7.903v.238M6.787 8.046l.238.095M7.025 8.141l.238-.095M6.882 8.332l.143-.19M7.025 8.141l.143.19M7.787 7.903v.238M7.549 8.046l.238.095M7.787 8.141l.238-.095M7.644 8.332l.143-.19M7.787 8.141l.143.19"/>
        </g>
        <path d="M1.725 2.248h8.6v4.8h-8.6Z" style="stroke:#afafaf;stroke-width:.1;stroke-opacity:1;stroke-linecap:round;stroke-linejoin:round;fill:none"/>
    </g>
    <circle cx="4.025" cy="4.648" r=".57" style="fill:none;stroke:#afafaf;stroke-width:.0212;stroke-opacity:1;stroke-linecap:round;stroke-linejoin:round"/>
    <circle cx="8.025" cy="4.648" r=".57" style="fill:none;stroke:#afafaf;stroke-width:.0212;stroke-opacity:1;stroke-linecap:round;stroke-linejoin:round"/>
    <g style="fill:none;stroke:#afafaf;stroke-width:.0889;stroke-opacity:1;stroke-linecap:round;stroke-linejoin:round">
        <g class="stroked-text">
            <path d="M1.364 4.344v.609M1.364 4.648H.297M.297 4.648l.153.102M.45 4.75l.101.101M.551 4.851l.05.102"/>
        </g>
        <path d="m.125 3.198.011-.057.033-.049.049-.032.057-.012h1.2l.057.012.05.032.032.049.011.057v2.9l-.011.058-.033.048-.049.033-.057.011h-1.2l-.057-.011-.05-.033-.032-.048-.011-.058Z" style="stroke:#afafaf;stroke-width:.0212;stroke-opacity:1;stroke-linecap:round;stroke-linejoin:round;fill:none"/>
    </g>
    <g style="fill:none;stroke:#afafaf;stroke-width:.0889;stroke-opacity:1;stroke-linecap:round;stroke-linejoin:round">
        <g class="stroked-text">
            <path d="m10.699 4.953-.051-.05M10.648 4.902l-.05-.101M10.597 4.8v-.253M10.597 4.547l.051-.102M10.648 4.445l.05-.05M10.699 4.394l.101-.05M10.8 4.344h.102M10.902 4.344l.152.05M11.054 4.394l.61.61M11.664 5.004v-.66"/>
        </g>
        <path d="m10.425 3.198.011-.057.033-.049.049-.032.057-.012h1.2l.057.012.05.032.032.049.011.057v2.9l-.011.058-.033.048-.049.033-.057.011h-1.2l-.057-.011-.05-.033-.032-.048-.011-.058Z" style="stroke:#afafaf;stroke-width:.0212;stroke-opacity:1;stroke-linecap:round;stroke-linejoin:round;fill:none"/>
    </g>
</svg>
